icon/fa/money-bill-1-wave.svg

<svg xmlns="http://www.w3.org/2000/svg" viewBox="0 0 576 512"><!--! Font Awesome Free 6.1.2 by @fontawesome - https://fontawesome.com License - https://fontawesome.com/license/free (Icons: CC BY 4.0, Fonts: SIL OFL 1.1, Code: MIT License) Copyright 2022 Fonticons, Inc.--><path d="M251.1 207.1c0-11 9-20 20-20h16c11.9 0 20.9 9 20.9 20v68h4c11 0 20 9 20 20 0 11.9-9 20-20 20h-48.9c-11 0-20-8.1-20-20 0-11 9-20 20-20h4v-47.5c-8.2-1.9-16-9.9-16-20.5zM48.66 79.13C128.4 100.9 208.2 80.59 288 60.25c87-22.17 174-44.35 261-11.87 16.9 6.31 27 23.24 27 41.28V399.5c0 23.9-25.6 39.7-48.7 33.4-79.7-21.8-159.5-1.5-239.3 18.8-87.9 22.2-174.9 44.4-261.03 11.9C10.06 457.3 0 440.4 0 422.3V112.5c0-23.91 25.61-39.67 48.66-33.37zM127.1 416c0-35.3-27.75-64-64-64v64h64zm-64-192.9c36.25 0 64-27.8 64-64h-64v64zM512 352v-64.9c-35.3 0-64 29.6-64 64.9h64zm0-256.9h-64c0 36.2 28.7 64 64 64v-64zm-224.9 48c-53 0-96 51-96 112 0 62.8 43 112.9 96 112.9 53.9 0 96.9-50.1 96.9-112.9 0-61-43-112-96.9-112z"/></svg>

<svg xmlns="http://www.w3.org/2000/svg" viewBox="0 0 576 512" height="1em" width="1em">
<!--! Font Awesome Free 6.1.2 by @fontawesome - https://fontawesome.com License - https://fontawesome.com/license/free (Icons: CC BY 4.0, Fonts: SIL OFL 1.1, Code: MIT License) Copyright 2022 Fonticons, Inc.-->
  <path d="M251.1 207.1C251.1 196.1 260.1 187.1 271.1 187.1H287.1C299 187.1 308 196.1 308 207.1V275.1H312C323 275.1 332 284.1 332 295.1C332 307 323 315.1 312 315.1H263.1C252.1 315.1 243.1 307 243.1 295.1C243.1 284.1 252.1 275.1 263.1 275.1H267.1V227.6C258.9 225.7 251.1 217.7 251.1 207.1zM48.66 79.13C128.4 100.9 208.2 80.59 288 60.25C375 38.08 462 15.9 549 48.38C565.9 54.69 576 71.62 576 89.66V399.5C576 423.4 550.4 439.2 527.3 432.9C447.6 411.1 367.8 431.4 288 451.7C200.1 473.9 113.1 496.1 26.97 463.6C10.06 457.3 0 440.4 0 422.3V112.5C0 88.59 25.61 72.83 48.66 79.13L48.66 79.13zM127.1 416C127.1 380.7 99.35 352 63.1 352V416H127.1zM63.1 223.1C99.35 223.1 127.1 195.3 127.1 159.1H63.1V223.1zM512 352V287.1C476.7 287.1 448 316.7 448 352H512zM512 95.1H448C448 131.3 476.7 159.1 512 159.1V95.1zM287.1 143.1C234.1 143.1 191.1 194.1 191.1 255.1C191.1 317.9 234.1 368 287.1 368C341 368 384 317.9 384 255.1C384 194.1 341 143.1 287.1 143.1z"/>
</svg>
